X:116
T:The Wassail Song
C:English Traditional
L:1/4
M:6/8
Q:1/4=120
P:BABABABAB
V:S
%%MIDI program 1 68
V:A
%%MIDI program 2 60
V:T clef=treble_8 
%%MIDI program 3 57
%%score (S A) T
K:Cmaj
P:A
[M:6/8][Q:1/8=240]
[V:S] C/2| C D/2 E D/2 | C D/2 E D/2 | C G/2 G G/2 |
G3/2-G G/2 | A A/2 G E/2 | G3/2 F E/2 | (D C/2) D E/2 | F3/2 ||
"^Chorus" [M:4/4][Q:1/4=160] E F | G2 c A | G2 E F | G G c A |
G2 E F | G2 A E | (F D) C B, | (C3/2 D/2) E C |
%
[V:A] C/2| C C/2 B, B,/2 | C C/2 B, B,/2 | C C/2 F E/2 | D3/2-D D/2 | F C/2 C C/2 | D3/2 D C/2 | A, C/2 B, C/2 | G,3/2 ||
%
w:1 Here we come a-was sail-ing A-mong the leaves so green,_* Here we come a wan-d'ring So fair_ to be seen.
%
w:2~We are not dai-ly beg_gars That beg from door to door;_ But we are neigh-bours' child-ren, Whom you have seen be-fore.
%
w:3~Good mas-ter and good mis_tress, As you sit by the fire,_ Pray think of us poor child-ren Who wan-der in the mire.
%
w:4~God bless the mas-ter of this house Like-wise the mis-tress too,_ And all the lit-tle child-ren That round the ta-ble go.
%
[M:4/4][Q:1/4=160] C B, | C2 C D | E2 C B, | C B, E C | B,2 E D | D2 ^C C | (D A,) G, G, | (G,3/2 B,/2) C C |
w: Love and joy come to you, And to you your was-sail, too, And God bless you and send_ you a hap-_py New
%
[V:T] E,/2 | E, F,/2 G, F,/2 | E, F,/2 G, F,/2 | E, G,/2 B, C/2 |
B,3/2-B, B,/2 | C F,/2 G, G,/2 | A,3/2 G, G,/2 | A, G,/2 F, E,/2 | D,3/2 ||
[M:4/4][Q:1/4=160] G, G, | G,2 A, B, | C2 G, G, | G, G, G, ^F, |
G,2 G, A, | G,2 G, G, | F,2 E, D, | (E,3/2 F,/2) G, A, |
P:B
[M:4/4][Q:1/4=160]
[V:S] F2 E F | G2 A E | F D (C B,) | C2 x/|]
[V:A] (A, B,) C C | D2 A, A, | A, A, G,2 | G,2 x/|]
w: Year._ And God send you a hap-py New Year.
[V:T] F,2 G, A, |G,2 E, G, |F, F, (E, D,) | E,2 x/|]

